X:493
T:When They Ring Those Golden Bells
C:
N:Transcribed by Greg Rohrer
R:bluegrass
L:1/8
Q:1/4=85
M:4/4
K:G
z4 d2 c2 | "G"B3A B3A | "G7"B2 d4 (3B^A=A | "C"E3{G}A G3E | "G"D2 G3D GA | B3^A B3c | 
{c}d2 ^c2 {d}e2 d2 | "D"A4 z{^A}B (3FDE | "D"D4 zD (3DFA | c3B {^c}d3{^A}B | "G"A2 G3G (3GF=F | 
"C"E3{G}A G3E | "G"D2 G3D GA | "G"B2 {^c}d2 {f}"C"g2 {^d}e2 | {^c}"G"d2 {^A}B2 "D"=A3B | 
"G"G8 | "G"z4 "G7"d4 | {d}"C"e3^d e3d | e2 g3g (3gfe | "G"d3e d3c | B2 d3B (3def | 
"G"g2 "D"f2 "C"e2 "G"d2 | "C"c2 "G"B2 "D"A2 "G"G2 | "D"d4 z{^A}B/(3=A {=F}(3^FDE | 
D4 {^c}d3=c | "G"B3A B3A | "G7"B2 d3e {^A}(3BG=A | "C"G3A G3E | "G"D2 {F}G3D GA | 
"G"B2 {^c}d2 {f}"C"g2 {^d}e2 | {^c}"G"d2 {^A}B2 "D"=A3B | "G"G8 | "G"z4 (3"G7"=FdF (3^F^dF | 
(3"C"GeG (3eGe (3GeG (3eGe | e2 g3{^a}b/(3=a (3gfe | "G"[g3d3]e [g3d3]c | Bc [g3d3][gd] (3[gd]ef | 
(3"G"gbg (3"D"faf (3"C"ege (3"G"dgd | {B}(3"C"cec (3"G"BdB (3"D"AdA "G"GD | "D"Fd3 [e4G4] | 
[f4A4] (3FdF (3EcE | "G"B3A B3A | "G7"B2 d3g (3dBA | "C"G3A G3E | "G"D2 G3D GA | 
"G"[g2B2] [g2d2] "C"[c'2g2] [g2e2] | "G"[g2d2] [g2B2] "D"A3B/A/ | "G"G8 | "G"dG dG [d4G4] | 
z8 | 


